X: 7598
T: Coen's Memories
R: reel
M: 4/4
K: Edorian
|:F|EDB,A, B,EFA|BBeB dBAF|DDDF EEDB,|A,B,DF EDB,D|
[B,E]E E/E/E DEFA|BBeB dBAF|DEFA ABAF|DEFD EEE:|
|:A|Be e/e/e fedB|eAfe dBAF|AAAB ddfd|edef ddBA|
Be e/e/e fedB|eAfe dBAF|DEFA ABAF|DEFD EEE:|

